source/Icon/two-dimensional-code-one.svg

<svg width="48" height="48" viewBox="0 0 48 48" fill="none" xmlns="http://www.w3.org/2000/svg"><path stroke-linejoin="round" stroke-width="4" stroke="#333" d="M18 6H6v12h12V6ZM18 30H6v12h12V30ZM42 30H30v12h12V30ZM42 6H30v12h12V6Z"/><path stroke-linecap="round" stroke-width="4" stroke="#333" d="M24 6v18M24 30v12M24 24H6M42 24H30"/></svg>

<svg width="32" height="32" viewBox="0 0 48 48" fill="none" xmlns="http://www.w3.org/2000/svg">
    <path d="M18 6H6V18H18V6Z" fill="#2F88FF" stroke="#000000" stroke-width="4" stroke-linejoin="round"/>
    <path d="M18 30H6V42H18V30Z" fill="#2F88FF" stroke="#000000" stroke-width="4" stroke-linejoin="round"/>
    <path d="M42 30H30V42H42V30Z" fill="#2F88FF" stroke="#000000" stroke-width="4" stroke-linejoin="round"/>
    <path d="M42 6H30V18H42V6Z" fill="#2F88FF" stroke="#000000" stroke-width="4" stroke-linejoin="round"/>
    <path d="M24 6V24" stroke="#000000" stroke-width="4" stroke-linecap="round"/>
    <path d="M24 30V42" stroke="#000000" stroke-width="4" stroke-linecap="round"/>
    <path d="M24 24L6 24" stroke="#000000" stroke-width="4" stroke-linecap="round"/>
    <path d="M42 24H30" stroke="#000000" stroke-width="4" stroke-linecap="round"/>
</svg>
